src/lib/packages/icons/src/assets/line/user-check.svg

<svg width="24" height="24" viewBox="0 0 24 24" fill="none" xmlns="http://www.w3.org/2000/svg">
<path d="M17.667 12.444C17.475 12.444 17.283 12.371 17.137 12.224L15.47 10.557C15.177 10.265 15.177 9.78897 15.47 9.49597C15.763 9.20297 16.238 9.20297 16.531 9.49597L17.668 10.632L20.4709 7.82898C20.7639 7.53598 21.239 7.53598 21.532 7.82898C21.825 8.12198 21.825 8.59701 21.532 8.89001L18.199 12.223C18.051 12.371 17.859 12.444 17.667 12.444ZM14.259 6.5C14.259 4.157 12.353 2.25 10.009 2.25C7.66503 2.25 5.75903 4.157 5.75903 6.5C5.75903 8.843 7.66503 10.75 10.009 10.75C12.353 10.75 14.259 8.843 14.259 6.5ZM12.759 6.5C12.759 8.017 11.526 9.25 10.009 9.25C8.49203 9.25 7.25903 8.017 7.25903 6.5C7.25903 4.983 8.49203 3.75 10.009 3.75C11.526 3.75 12.759 4.983 12.759 6.5ZM17.75 18.019C17.75 15.358 16.244 12.25 12 12.25H8C3.756 12.25 2.25 15.357 2.25 18.019C2.25 20.425 3.58305 21.75 6.00305 21.75H13.9969C16.4169 21.75 17.75 20.425 17.75 18.019ZM12 13.75C15.943 13.75 16.25 17.017 16.25 18.019C16.25 19.583 15.5759 20.25 13.9969 20.25H6.00305C4.42405 20.25 3.75 19.583 3.75 18.019C3.75 17.018 4.057 13.75 8 13.75H12Z" fill="currentColor"/>
</svg>

<svg xmlns="http://www.w3.org/2000/svg" width="24" height="24" fill="none"><path fill="currentColor" d="M17.667 12.444a.744.744 0 0 1-.53-.22l-1.667-1.667a.75.75 0 0 1 1.061-1.061l1.137 1.136 2.803-2.803a.75.75 0 0 1 1.061 1.061l-3.333 3.333a.749.749 0 0 1-.532.221ZM14.259 6.5a4.255 4.255 0 0 0-4.25-4.25 4.255 4.255 0 0 0-4.25 4.25 4.255 4.255 0 0 0 4.25 4.25 4.255 4.255 0 0 0 4.25-4.25Zm-1.5 0a2.752 2.752 0 0 1-2.75 2.75 2.752 2.752 0 0 1-2.75-2.75 2.752 2.752 0 0 1 2.75-2.75 2.752 2.752 0 0 1 2.75 2.75Zm4.991 11.519c0-2.661-1.506-5.769-5.75-5.769H8c-4.244 0-5.75 3.107-5.75 5.769 0 2.406 1.333 3.731 3.753 3.731h7.994c2.42 0 3.753-1.325 3.753-3.731ZM12 13.75c3.943 0 4.25 3.267 4.25 4.269 0 1.564-.674 2.231-2.253 2.231H6.003c-1.579 0-2.253-.667-2.253-2.231 0-1.001.307-4.269 4.25-4.269h4Z"/></svg>
